X:1
T:Title
%%score { ( 1 3 ) | ( 2 4 ) }
L:1/8
Q:1/4=100
M:6/4
K:Ab
V:1 treble nm="Grand Piano"
V:3 treble 
V:2 bass 
V:4 bass 
V:1
 e2 d2 c2 c2 B2 A2 | [FA]2 [EG]2 [DF]2 .[DF]4[K:bass] C,2 | E2[K:treble] G2 B2 A2 G2 A2 | %3
w: J.~E.~Gould * * * * *|||
 [EAe]2 [Af]2 [AB]2 [GB]4 E2 | E2 [A,EF]2 [B,EG]2 [A,EA]2 [A,EA]2 [B,=EG]2 | %5
w: ||
 [A,F]2 [A,DF]2 [DFB]2 [CEA]2 [B,EG]4 | [A,EA]2 [_Ge]2 [Fd]2 c2 A2 A2 | A2 [EAc]2 [DGB]2 [CA]6 | %8
w: |||
[M:13/8] G2 A2 B2 d2 c3 z D[Q:1/4=99][Q:1/4=97][Q:1/4=96][Q:1/4=94][Q:1/4=93] | %9
w: |
 [CEA]2 [EAc]3 [DGB]2 [CA]-[CA]-[CA]- [CA]3[Q:1/4=91][Q:1/4=90][Q:1/4=88][Q:1/4=87][Q:1/4=85][Q:1/4=84][Q:1/4=82][Q:1/4=81][Q:1/4=79][Q:1/4=78][Q:1/4=76] |] %10
w: |
V:2
 [A,CE]2 [A,B,E]2 [A,E]2 [A,E]2 [A,DE]2 [A,CE]2 | [D,D]2 [D,A,]2 [D,A,]2 [A,,A,]2 .[A,,A,]4 | %2
 [E,G,B,]2 [E,B,E]2 [G,DE]2 [A,CE]2 [B,DE]2 [CE]2 | C,2 [D,D]2 [F,=D]2 [E,E]4 [E,G,]2- | %4
 [E,G,]2 E,2 D,2 C,2 C,2 C,2 | D,2 D,2 B,,2 E,2 E,2 D,2 | %6
 C,2 [C,A,]2 [D,A,]2 [E,A,E]2 [F,A,C]2 [F,B,D]2 | [E,CE]2 E,2 E,2 A,,6 | %8
[M:13/8] [E,B,]2 [E,C]2 [E,E]2[K:treble] [A,F]2 [A,E]3[K:bass] [A,C]B, | %9
 E,2 E,3 E,2 A,,-A,,-A,,- A,,3 |] %10
V:3
 x12 | z6 z2 [CE]4[K:bass] | x2[K:treble] x10 | x12 | x12 | x12 | x12 | x12 | %8
[M:13/8] z z z z z z z z z z2 A2 | x13 |] %10
V:4
 x12 | x12 | x12 | x12 | x12 | x12 | x12 | x12 | %8
[M:13/8] z z z z z z[K:treble] z z z z2[K:bass] F,2 | x13 |] %10

